X: 6
T: Dick Gossip's
Z: TimBuk2
S: https://thesession.org/tunes/408#setting52916
R: reel
M: 4/4
L: 1/8
K: Amix
|:F2AF GFED|F2AF GFED|E2EF GFED|E2EF GFED|
F2AF GFED|F2AF GFED|cdef gede|1 dfec d2AG:|2 dfec d2ef||
|:gBBB gBaB|gBBB gfed|cAeA fAeA|cdef gfef|
gBBB gBaB|gBBB gfed|cdef gece|1 dfec ~d2ef:|2 dfec dBAG||

%-------------------- TUNE SEPARATOR --------------------%

